X: 25198
T: Malbay Shuffle, The
R: reel
M: 4/4
K: Fmajor
|:c3F GFFF|DFFF GFFA|c2BA GFFF|CDFA GFGA:|
A3c dfff|dfcf dff2|A3c dffc|dfcA GFDF|
A3c dfff|dfcf dffc|dfcA BGAF|CDFA GFGA||

